docs/.gitbook/assets/icon-new-document-16@light.svg

<svg width="32" height="32" viewBox="0 0 16 16" fill="none" xmlns="http://www.w3.org/2000/svg">
<rect x="0" y="0" width="16" height="16" fill="#fff"/>
<path fill-rule="evenodd" clip-rule="evenodd" d="M4.75 2.5C4.05964 2.5 3.5 3.05964 3.5 3.75V12.25C3.5 12.9404 4.05964 13.5 4.75 13.5H7.25C7.66421 13.5 8 13.8358 8 14.25C8 14.6642 7.66421 15 7.25 15H4.75C3.23122 15 2 13.7688 2 12.25V3.75C2 2.23122 3.23122 1 4.75 1H8.58579C9.04992 1 9.49503 1.18437 9.82322 1.51256L13.7286 5.41789C13.9024 5.5917 14 5.82743 14 6.07322C14 6.58507 13.5851 7 13.0732 7H9.75C8.7835 7 8 6.2165 8 5.25V2.5H4.75ZM9.5 3.31066V5.25C9.5 5.38807 9.61193 5.5 9.75 5.5H11.6893L9.5 3.31066ZM12 9C12.4142 9 12.75 9.33579 12.75 9.75V11.25H14.25C14.6642 11.25 15 11.5858 15 12C15 12.4142 14.6642 12.75 14.25 12.75H12.75V14.25C12.75 14.6642 12.4142 15 12 15C11.5858 15 11.25 14.6642 11.25 14.25V12.75H9.75C9.33579 12.75 9 12.4142 9 12C9 11.5858 9.33579 11.25 9.75 11.25H11.25V9.75C11.25 9.33579 11.5858 9 12 9Z" fill="#000"/>
</svg>

<svg xmlns="http://www.w3.org/2000/svg" width="32" height="32" fill="none" viewBox="0 0 16 16"><path fill="#fff" d="M0 0h16v16H0z"/><path fill="#000" fill-rule="evenodd" d="M4.75 2.5c-.69 0-1.25.56-1.25 1.25v8.5c0 .69.56 1.25 1.25 1.25h2.5a.75.75 0 0 1 0 1.5h-2.5A2.75 2.75 0 0 1 2 12.25v-8.5A2.75 2.75 0 0 1 4.75 1h3.836c.464 0 .909.184 1.237.513l3.906 3.905A.927.927 0 0 1 13.073 7H9.75A1.75 1.75 0 0 1 8 5.25V2.5zm4.75.81v1.94c0 .138.112.25.25.25h1.94zM12 9a.75.75 0 0 1 .75.75v1.5h1.5a.75.75 0 0 1 0 1.5h-1.5v1.5a.75.75 0 0 1-1.5 0v-1.5h-1.5a.75.75 0 0 1 0-1.5h1.5v-1.5A.75.75 0 0 1 12 9" clip-rule="evenodd"/></svg>
